packages/blockchain-info-components/src/Images/img/arrow-left.svg

<svg fill="none" height="32" viewBox="0 0 32 32" width="32" xmlns="http://www.w3.org/2000/svg"><path d="m26.6673 14.6666h-16.2266l7.4533-7.45335-1.8933-1.88-10.66672 10.66665 10.66672 10.6667 1.88-1.88-7.44-7.4533h16.2266z" fill="#0c6cf2"/></svg>

<svg width="32" height="32" viewBox="0 0 32 32" fill="none" xmlns="http://www.w3.org/2000/svg">
<path d="M26.6673 14.6666L10.4407 14.6666L17.894 7.21325L16.0007 5.33325L5.33398 15.9999L16.0007 26.6666L17.8807 24.7866L10.4407 17.3333H26.6673V14.6666Z" fill="#0C6CF2"/>
</svg>
